static/images/logo.svg

<svg width="155" height="67" viewBox="0 0 155 67" fill="none" xmlns="http://www.w3.org/2000/svg">
<path d="M71.574 35.1146H71.0924C71.0323 35.1146 70.9721 35.1146 70.9119 35.1146C70.9119 35.0547 70.9721 34.8155 71.1526 34.3369L74.0419 27.2183H79.2184L81.927 33.9182V33.978C81.9872 34.0976 81.9872 34.1574 82.0474 34.2173C82.2882 34.7556 82.2881 34.9949 82.2881 35.0547C82.2881 35.0547 82.228 35.0547 82.1076 35.0547H81.626V36.1913H87.1637V35.0547H86.6822C86.1404 35.0547 85.7191 34.7556 85.4783 34.1574C85.1172 33.3798 84.9968 33.1405 84.9968 33.0209L77.8339 15.1944H76.8709L69.5275 33.4994C69.1061 34.4565 68.8653 34.6958 68.8052 34.7556C68.6246 34.8753 68.3838 34.9351 68.0829 34.9351H67.6013V36.0717H71.4536L71.574 35.1146ZM76.6903 20.6979L78.6766 25.7228H74.704L76.6903 20.6979Z" fill="#C09465"/>
<path d="M107.268 33.619C108.351 32.6021 109.194 31.3459 109.856 29.9102C110.518 28.4745 110.819 26.979 110.819 25.4835C110.819 23.9281 110.518 22.4925 109.916 21.2362C109.314 19.98 108.472 18.9032 107.448 18.0657C106.425 17.2283 105.161 16.6301 103.777 16.2711C102.392 15.9122 100.526 15.6729 98.1788 15.6729L88.6083 15.6131V16.7497H89.0898C89.7519 16.7497 89.8723 16.9292 89.8723 16.9292C89.8723 16.9292 90.0529 17.2283 90.0529 18.6041L89.9927 32.961C89.9927 34.1574 89.8723 34.6958 89.8121 34.8753C89.7519 34.9949 89.6917 35.1744 89.2704 35.1744H88.5481V36.311L98.2992 36.3708C100.767 36.3708 102.573 36.1913 103.777 35.8324C104.98 35.3538 106.184 34.636 107.268 33.619ZM98.0584 34.8753C96.7944 34.8753 95.7109 34.7556 94.9886 34.5762C94.3265 34.3967 93.845 34.0976 93.6042 33.7387C93.3634 33.3798 93.1829 32.7217 93.1829 31.8843L93.2431 17.0488H95.8313C99.8642 17.0488 102.874 18.0059 104.8 19.8604C106.726 21.7148 107.749 23.8683 107.689 26.3808C107.689 28.4745 106.967 30.5084 105.522 32.303C104.078 33.978 101.61 34.8753 98.0584 34.8753Z" fill="#C09465"/>
<path d="M110.338 35.0547C110.157 35.1744 109.916 35.2342 109.615 35.2342H109.134V36.3708H112.986V35.2342H112.505C112.444 35.2342 112.384 35.2342 112.324 35.2342C112.324 35.1744 112.384 34.9351 112.565 34.4565L115.454 27.3379H120.63L123.339 34.0378V34.0976C123.399 34.2173 123.399 34.2771 123.459 34.3369C123.7 34.8753 123.7 35.1146 123.7 35.1744C123.7 35.1744 123.64 35.1744 123.52 35.1744H123.038V36.311H128.576V35.1744H128.094C127.553 35.1744 127.131 34.8753 126.89 34.2771C126.529 33.4994 126.409 33.2601 126.409 33.1405L119.246 15.314H118.283L110.94 33.6191C110.639 34.6958 110.398 34.9949 110.338 35.0547ZM118.102 20.8773L120.089 25.9022H116.116L118.102 20.8773Z" fill="#C09465"/>
<path d="M154.639 35.4137C154.097 35.3538 153.977 35.2342 153.977 35.2342C153.916 35.1744 153.796 34.9351 153.676 34.0378L151.629 19.0827C151.569 18.7238 151.569 18.4247 151.569 18.2452C151.569 17.4675 151.93 17.1086 152.713 17.0488H153.134V15.972H149.221L142.48 31.3459L135.859 15.9122H131.345V17.0488H131.826C132.067 17.0488 132.368 17.1086 132.669 17.2881C132.789 17.3479 133.09 17.5872 133.511 18.5443L131.224 34.2173C131.164 34.5164 131.164 34.7556 131.104 34.9351C131.044 35.1744 130.983 35.2342 130.983 35.2342C130.983 35.2342 130.863 35.294 130.381 35.294H129.9V36.4306H133.873V35.294H133.391C132.97 35.294 132.97 35.1744 132.97 34.9949C132.97 34.7556 132.97 34.5164 133.03 34.2771L134.836 21.3559L141.336 36.4904H142.059L148.68 21.4755L150.425 34.3369C150.486 34.8155 150.486 34.9949 150.486 35.0547C150.486 35.2342 150.486 35.294 150.425 35.3538C150.365 35.4137 150.245 35.4137 150.064 35.4137H149.583V36.5502H155V35.4735L154.639 35.4137Z" fill="#C09465"/>
<path d="M93.4237 63.8882C92.7014 64.3069 92.0392 64.4864 91.3771 64.4864C90.5345 64.4864 89.6316 64.0676 88.7287 63.1703L86.9831 61.4355C87.8258 60.1195 88.4277 58.1454 88.7889 55.633C88.9695 54.3767 89.15 53.958 89.2102 53.8383C89.2102 53.7785 89.2704 53.6589 89.6316 53.7187L90.1733 53.7785V52.5223H84.9968V53.7187L85.8997 53.6589H86.0802C86.7424 53.7187 86.9831 53.7785 87.1035 53.8383C87.1637 53.8982 87.2239 54.0178 87.2239 54.4964C87.2239 55.2142 87.1035 56.2312 86.8627 57.607C86.6822 58.6838 86.321 59.5811 85.8997 60.3588L77.533 52.1035C75.4865 50.0697 75.0049 48.8732 75.0049 48.2152C75.0049 47.7367 75.1855 47.3179 75.5467 46.959C75.9078 46.6001 76.3893 46.4206 77.1117 46.4206C77.9543 46.4206 78.8572 46.6599 79.6999 47.1983C80.6028 47.7367 81.4455 48.3947 82.1076 49.2322L82.228 49.4116H83.3716L82.228 46.3608L82.1076 46.301C81.3853 45.8822 80.663 45.5831 80.0009 45.3439C79.2786 45.1046 78.4359 44.9849 77.533 44.9849C75.9078 44.9849 74.6438 45.4037 73.8613 46.301C73.0788 47.1385 72.6574 48.1554 72.6574 49.2322C72.6574 49.8902 72.7778 50.5482 73.0788 51.1464C73.2594 51.5652 73.5001 51.9839 73.8011 52.4625C72.3565 52.8214 71.2128 53.5392 70.3702 54.5562C69.3469 55.7526 68.8654 57.1883 68.8654 58.8034C68.8654 60.6579 69.5877 62.3927 71.0323 63.8882C72.4769 65.4435 74.7642 66.2212 77.7136 66.2212C80.6028 66.2212 83.0105 65.4435 84.9366 63.7685L85.2977 64.1274V64.1873L85.4181 64.3069C86.7424 65.623 88.187 66.281 89.752 66.281C91.2568 66.281 92.7014 65.8622 93.9654 64.9649L94.3265 64.7256L93.7246 63.7685L93.4237 63.8882ZM82.0474 63.8882C81.4455 64.1274 80.6028 64.2471 79.5193 64.2471C77.4126 64.2471 75.5467 63.4694 73.8613 61.9739C72.2361 60.4784 71.3934 58.8633 71.3934 57.1883C71.3934 55.4535 72.5371 54.2571 74.8244 53.7187C75.0651 53.958 75.3661 54.3169 75.7874 54.7955C76.6903 55.7526 76.7505 55.8124 76.7505 55.8124L83.9133 62.7516C83.2512 63.2301 82.5891 63.6489 82.0474 63.8882Z" fill="#C09465"/>
<path d="M115.815 62.7516C115.695 63.6489 115.514 63.948 115.454 64.0078C115.273 64.1873 115.093 64.2471 114.912 64.3069C114.732 64.3667 114.25 64.4266 112.866 64.4266H109.375C108.652 64.4266 108.171 64.3667 107.81 64.3069C107.689 64.2471 107.448 64.1873 107.328 63.8283C107.208 63.5891 107.087 63.1105 107.087 62.0337V56.4106H112.866C113.407 56.4106 113.528 56.4704 113.588 56.4704C113.588 56.4704 113.648 56.5303 113.648 56.6499L113.708 57.0088H114.792V54.1973H113.648V54.616C113.648 54.7357 113.588 54.7357 113.588 54.7357C113.588 54.7357 113.407 54.7955 112.685 54.7955H107.087V46.8992H113.167C114.009 46.8992 114.19 47.0188 114.19 47.0188C114.19 47.0188 114.371 47.2581 114.732 48.5742L114.852 48.9331H115.875V45.284L102.453 45.2242V46.3608H102.934C103.536 46.3608 103.717 46.4804 103.717 46.5403C103.777 46.6599 103.837 47.0188 103.837 47.8563L103.777 63.7685C103.777 64.3667 103.656 64.5462 103.656 64.5462C103.536 64.606 103.295 64.7257 102.814 64.7257H102.392V65.8024L116.899 65.8622V62.2132H115.815V62.7516Z" fill="#C09465"/>
<path d="M135.678 47.1385C135.919 46.7197 136.1 46.6599 136.1 46.6599C136.28 46.6001 136.461 46.6001 136.642 46.6001H137.123V45.4635H133.211V46.6001H133.692C133.813 46.6001 133.873 46.6001 133.873 46.6001C133.873 46.6599 133.813 46.7197 133.813 46.8394L128.094 60.8971L122.436 46.7795C122.376 46.6599 122.376 46.6001 122.376 46.4804C122.376 46.4804 122.436 46.4804 122.496 46.4804L122.978 46.5403V45.4037H117.44V46.5403H117.922C118.163 46.5403 118.403 46.6001 118.644 46.7795C118.704 46.8394 119.065 47.1385 119.728 48.6938L126.83 66.3408H127.733L135.317 47.6768C135.317 47.6768 135.438 47.4376 135.678 47.1385Z" fill="#C09465"/>
<path d="M152.171 64.1275C151.81 63.3498 151.689 63.1105 151.689 62.9909L144.527 45.1644H143.563L136.22 63.4694C135.799 64.4266 135.558 64.6658 135.498 64.7257C135.317 64.8453 135.076 64.9051 134.775 64.9051H134.294V66.0417H138.146V64.9051H137.665C137.604 64.9051 137.544 64.9051 137.484 64.9051C137.484 64.8453 137.544 64.606 137.725 64.1275L140.614 57.0088H145.791L148.499 63.7087V63.7685C148.559 63.8882 148.559 63.948 148.62 64.0078C148.86 64.5462 148.86 64.7855 148.86 64.8453C148.86 64.8453 148.8 64.8453 148.68 64.8453H148.198V65.9819H153.736V64.8453H153.254C152.893 65.0248 152.472 64.7257 152.171 64.1275ZM141.276 55.5731L143.263 50.6081L145.249 55.633L141.276 55.5731Z" fill="#C09465"/>
<path d="M28.3562 21.1166C28.6571 21.2362 30.6435 21.4157 30.6435 21.4157C30.6435 21.4157 27.6339 10.2891 34.3152 2.21335C34.556 1.91425 34.6763 1.55533 34.6161 1.19641C34.556 0.837485 34.3754 0.478563 34.1346 0.299102C33.8336 0.0598204 33.4725 0 33.1113 0C32.7502 0.0598204 32.389 0.239282 32.2085 0.478563C29.1989 4.18743 27.8746 8.01593 27.3931 11.3659C26.43 9.63108 25.2262 7.95611 23.6612 6.4606C17.4012 0.538384 8.25208 0 8.25208 0C8.25208 0 9.15495 9.0927 15.2945 15.0149C19.5682 19.0827 24.865 19.9202 28.3562 21.1166ZM21.3137 8.7936C24.0224 11.3659 25.5272 14.7158 26.3698 17.3479C23.6612 16.6301 20.2303 15.1944 17.5216 12.6819C14.813 10.1096 13.3082 6.7597 12.4655 4.12761C15.1741 4.84545 18.6051 6.22132 21.3137 8.7936Z" fill="#C09465"/>
<path d="M43.4043 22.5523C37.4453 22.5523 32.3289 26.0219 29.6203 31.1066C26.9117 26.0219 21.7352 22.5523 15.8364 22.5523C7.10853 22.5523 -0.234888 30.0298 0.00587967 39.2422C0.126264 44.2671 4.94162 55.1544 13.4889 64.1873C17.5819 68.4943 24.6846 66.5801 27.9951 65.6828C23.9623 62.8114 13.9704 55.274 13.9704 51.6848C13.9704 47.1983 17.6421 43.4894 22.1565 43.4894C25.4671 43.4894 28.2961 45.4037 29.6203 48.2152C30.9445 45.4635 33.7736 43.4894 37.0239 43.4894C41.5383 43.4894 45.2702 47.1385 45.2702 51.6848C45.2702 55.3338 35.2182 62.8712 31.1853 65.6828C34.3153 66.5801 41.6587 68.4943 45.9925 64.1274C54.4796 55.4535 59.2347 45.2242 59.2347 39.1823C59.1745 30.0298 52.1321 22.5523 43.4043 22.5523Z" fill="#C09465"/>
</svg>

<svg width="155" height="67" fill="none" xmlns="http://www.w3.org/2000/svg"><path d="M71.574 35.115h-.662c0-.06.06-.3.24-.778l2.89-7.119h5.176l2.709 6.7v.06c.06.12.06.18.12.24.241.538.241.777.241.837h-.662v1.136h5.538v-1.136h-.482c-.542 0-.963-.3-1.204-.898-.36-.777-.481-1.016-.481-1.136l-7.163-17.827h-.963L69.528 33.5c-.422.957-.663 1.197-.723 1.257-.18.12-.421.18-.722.18H67.6v1.136h3.853l.12-.957zm5.116-14.417l1.987 5.025h-3.973l1.986-5.025zm30.578 12.921c1.083-1.017 1.926-2.273 2.588-3.709.662-1.436.963-2.931.963-4.427 0-1.555-.301-2.99-.903-4.247a9.227 9.227 0 0 0-2.468-3.17c-1.023-.838-2.287-1.436-3.671-1.795-1.385-.359-3.251-.598-5.598-.598l-9.57-.06v1.137h.48c.663 0 .783.18.783.18s.18.298.18 1.674l-.06 14.357c0 1.196-.12 1.735-.18 1.914-.06.12-.12.3-.542.3h-.722v1.136l9.751.06c2.468 0 4.274-.18 5.478-.539a11.07 11.07 0 0 0 3.491-2.213zm-9.21 1.256c-1.264 0-2.347-.12-3.07-.299-.662-.18-1.143-.478-1.384-.837-.24-.36-.421-1.017-.421-1.855l.06-14.835h2.588c4.033 0 7.043.957 8.969 2.811 1.926 1.855 2.949 4.008 2.889 6.52 0 2.095-.722 4.128-2.167 5.923-1.444 1.675-3.912 2.572-7.464 2.572zm12.28.18c-.181.12-.422.18-.723.18h-.481v1.136h3.852v-1.137h-.662c0-.06.06-.299.241-.778l2.889-7.118h5.176l2.709 6.7v.06c.06.12.06.18.12.239.241.538.241.778.241.837h-.662v1.137h5.538v-1.137h-.482c-.541 0-.963-.299-1.204-.897-.361-.778-.481-1.017-.481-1.136l-7.163-17.827h-.963l-7.343 18.305c-.301 1.077-.542 1.376-.602 1.436zm7.764-14.178l1.987 5.025h-3.973l1.986-5.025zm36.537 14.537c-.542-.06-.662-.18-.662-.18-.061-.06-.181-.299-.301-1.196l-2.047-14.955c-.06-.36-.06-.658-.06-.838 0-.777.361-1.136 1.144-1.196h.421v-1.077h-3.913l-6.741 15.374-6.621-15.434h-4.514v1.137h.481c.241 0 .542.06.843.24.12.059.421.298.842 1.255l-2.287 15.673c-.06.3-.06.539-.12.718-.06.24-.121.3-.121.3s-.12.059-.602.059h-.481v1.137h3.973v-1.137h-.482c-.421 0-.421-.12-.421-.3 0-.238 0-.478.06-.717l1.806-12.921 6.5 15.134h.723l6.621-15.015 1.745 12.862c.061.478.061.658.061.718 0 .18 0 .239-.061.299-.06.06-.18.06-.361.06h-.481v1.136H155v-1.076l-.361-.06zM93.424 63.888c-.723.419-1.385.598-2.047.598-.843 0-1.745-.418-2.648-1.316l-1.746-1.735c.843-1.316 1.445-3.29 1.806-5.802.18-1.256.361-1.675.421-1.795 0-.06.06-.18.422-.12l.541.06v-1.256h-5.176v1.197l.903-.06h.18c.662.06.903.12 1.023.18.06.06.12.179.12.657 0 .718-.12 1.735-.36 3.111a8.727 8.727 0 0 1-.963 2.752l-8.367-8.256c-2.046-2.033-2.528-3.23-2.528-3.888 0-.478.18-.897.542-1.256.36-.359.842-.538 1.565-.538.842 0 1.745.239 2.588.777.903.539 1.745 1.197 2.408 2.034l.12.18h1.144l-1.144-3.051-.12-.06A12.879 12.879 0 0 0 80 45.344c-.722-.24-1.565-.36-2.468-.36-1.625 0-2.89.42-3.672 1.317-.782.837-1.204 1.854-1.204 2.931 0 .658.12 1.316.422 1.914.18.42.421.838.722 1.316-1.445.36-2.588 1.077-3.43 2.094-1.024 1.197-1.506 2.632-1.506 4.247 0 1.855.723 3.59 2.167 5.085 1.445 1.556 3.732 2.333 6.682 2.333 2.889 0 5.296-.778 7.223-2.453l.36.36v.06l.121.119c1.324 1.316 2.769 1.974 4.334 1.974 1.505 0 2.95-.419 4.213-1.316l.361-.24-.601-.956-.301.12zm-11.377 0c-.602.24-1.444.36-2.528.36-2.106 0-3.972-.779-5.658-2.274-1.625-1.496-2.468-3.11-2.468-4.786 0-1.735 1.144-2.93 3.431-3.47.241.24.542.599.963 1.077.903.958.963 1.017.963 1.017l7.163 6.94c-.662.478-1.324.897-1.866 1.136zm33.768-1.136c-.12.897-.301 1.196-.361 1.256-.181.18-.361.24-.542.299-.18.06-.662.12-2.046.12h-3.491a9.13 9.13 0 0 1-1.565-.12c-.121-.06-.362-.12-.482-.479-.12-.239-.241-.718-.241-1.794V56.41h5.779c.541 0 .662.06.722.06 0 0 .06.06.06.179l.06.359h1.084v-2.812h-1.144v.419c0 .12-.06.12-.06.12s-.181.06-.903.06h-5.598v-7.897h6.08c.842 0 1.023.12 1.023.12s.181.24.542 1.555l.12.36h1.023v-3.65l-13.422-.06v1.137h.481c.602 0 .783.12.783.18.06.119.12.478.12 1.315l-.06 15.913c0 .598-.121.777-.121.777-.12.06-.361.18-.842.18h-.422v1.076l14.507.06v-3.649h-1.084v.539zm19.863-15.613c.241-.42.422-.48.422-.48.18-.059.361-.059.542-.059h.481v-1.136h-3.912V46.6h.662c0 .06-.06.12-.06.24l-5.719 14.057-5.658-14.117c-.06-.12-.06-.18-.06-.3h.12l.482.06v-1.136h-5.538v1.136h.482c.241 0 .481.06.722.24.06.06.421.358 1.084 1.914l7.102 17.647h.903l7.584-18.664s.121-.24.361-.538zm16.493 16.988c-.361-.777-.482-1.016-.482-1.136l-7.162-17.827h-.964L136.22 63.47c-.421.958-.662 1.197-.722 1.257-.181.12-.422.18-.723.18h-.481v1.136h3.852v-1.137h-.662c0-.06.06-.299.241-.778l2.889-7.118h5.177l2.708 6.7v.06c.06.12.06.179.121.239.24.538.24.778.24.837h-.662v1.137h5.538v-1.137h-.482c-.361.18-.782-.12-1.083-.718zm-10.895-8.554l1.987-4.965 1.986 5.025-3.973-.06zM28.356 21.117c.301.12 2.287.299 2.287.299s-3.01-11.127 3.672-19.203c.241-.299.361-.658.301-1.017-.06-.359-.24-.717-.481-.897C33.834.06 33.472 0 33.11 0c-.36.06-.722.24-.902.479-3.01 3.708-4.334 7.537-4.816 10.887-.963-1.735-2.167-3.41-3.732-4.905C17.401.538 8.252 0 8.252 0s.903 9.093 7.042 15.015c4.274 4.068 9.571 4.905 13.062 6.102zM21.314 8.794c2.708 2.572 4.213 5.922 5.056 8.554-2.709-.718-6.14-2.154-8.848-4.666-2.709-2.572-4.214-5.922-5.056-8.554 2.708.717 6.14 2.093 8.848 4.666zm22.09 13.758c-5.959 0-11.075 3.47-13.784 8.555-2.708-5.085-7.885-8.555-13.784-8.555-8.727 0-16.07 7.478-15.83 16.69.12 5.025 4.936 15.912 13.483 24.945 4.093 4.307 11.196 2.393 14.506 1.496C23.962 62.81 13.97 55.274 13.97 51.685c0-4.487 3.672-8.196 8.187-8.196a8.21 8.21 0 0 1 7.463 4.726c1.325-2.752 4.154-4.726 7.404-4.726 4.514 0 8.246 3.65 8.246 8.196 0 3.649-10.052 11.186-14.085 13.998 3.13.897 10.474 2.811 14.808-1.556 8.487-8.673 13.242-18.903 13.242-24.945-.06-9.152-7.103-16.63-15.83-16.63z" fill="#C09465"/></svg>
